X: 1
T:The Hole in the Wall
M:3/2
L:1/4
Q:200
B:The Round Band Book of Playford
K:Bb
"Bb"d>e d/2e/2f "F"cf | "Gm"B>c B/2c/2d "Dm"Ad | \
"Eb"G>A G/2A/2B "Bb"Fd | "Eb"B3 "F"A "Bb"B2 :| \
"Gm"b>a g/2a/2b "Cm"ag | "D"^f>g f/2g/2a da | \
"Gm"b>a g/2a/2b "Cm"ag | "Gm"g3 "D7"^f "Gm"g2 | \
"Eb"G>A G/2A/2B "F"A/2B/2c | "Gm"B>c B/2c/2d "F"c/2d/2e | \
"Bb"d>e d/2e/2f "F"Ff | "Cm"d3 "F"c/2d/2 "Gm"B2 ||
